X: 1
T: Jerome's Farewell To Gibraltar
M: 4/4
L: 1/8
R: reel
K: Dmaj
|:dBAF FF A2|ABde fdef|dBAD FAdB|AFED EF E2|
dBAF FF A2|ABde fdef|dBAD FAdB|AFED EF D2:|
fgab agfg|fede fdef|dBAD FAdB|AFED EF E2|
fgab agfg|fede fdef|dBAD FAdB|AFED EF D2|
fgab agfg|fede fdef|dBAD FAdB|AFED EF E2|
dBAF FF A2|ABde fdef|dBAD FAdB|AFED EF D2|
